raw/symbols/eur.svg

<svg width="42" height="42" viewBox="0 0 42 42" fill="none" xmlns="http://www.w3.org/2000/svg">
<mask id="mask0_3145_261698" style="mask-type:alpha" maskUnits="userSpaceOnUse" x="0" y="0" width="42" height="42">
<circle cx="21" cy="21" r="21" fill="#D9D9D9"/>
</mask>
<g mask="url(#mask0_3145_261698)">
<path d="M52.4959 0H-10.4956V42H52.4959V0Z" fill="#003399"/>
<path d="M19.6939 9.43289L21.0069 8.47343L22.3198 9.43289L21.8317 7.88428L23.1615 6.92482H21.5119L21.0069 5.35938L20.5019 6.92482H18.8691L20.1989 7.88428L19.6939 9.43289Z" fill="#FFCC00"/>
<path d="M12.8961 11.2647L14.209 10.3052L15.522 11.2647L15.0338 9.71606L16.3636 8.75659H14.714L14.209 7.17432L13.7041 8.75659H12.0713L13.4011 9.71606L12.8961 11.2647Z" fill="#FFCC00"/>
<path d="M9.24248 12.1575L8.7375 13.7397H7.08789L8.41768 14.6992L7.91269 16.2478L9.24248 15.2884L10.5554 16.2478L10.0504 14.6992L11.3802 13.7397H9.73063L9.24248 12.1575Z" fill="#FFCC00"/>
<path d="M7.40459 22.0694L8.71754 23.0288L8.21256 21.4802L9.55917 20.5208H7.90957L7.40459 18.9553L6.89961 20.5376L5.25 20.5208L6.59662 21.4802L6.09164 23.0288L7.40459 22.0694Z" fill="#FFCC00"/>
<path d="M9.73063 27.3189L9.24248 25.7534L8.7375 27.3189H7.08789L8.41768 28.2783L7.91269 29.8269L9.24248 28.8675L10.5554 29.8269L10.0504 28.2783L11.3802 27.3189H9.73063Z" fill="#FFCC00"/>
<path d="M14.7309 32.3023L14.2259 30.7368L13.7209 32.3023H12.0713L13.4011 33.2617L12.9129 34.8103L14.2259 33.8509L15.5388 34.8103L15.0338 33.2617L16.3636 32.3023H14.7309Z" fill="#FFCC00"/>
<path d="M21.5119 34.134L21.0069 32.5518L20.5019 34.134H18.8691L20.1989 35.0935L19.6939 36.6421L21.0069 35.6826L22.3198 36.6421L21.8317 35.0935L23.1615 34.134H21.5119Z" fill="#FFCC00"/>
<path d="M28.3036 32.3023L27.7986 30.7368L27.2936 32.3023H25.644L26.9738 33.2617L26.4857 34.8103L27.7986 33.8509L29.1116 34.8103L28.6066 33.2617L29.9364 32.3023H28.3036Z" fill="#FFCC00"/>
<path d="M33.2948 27.3189L32.7898 25.7534L32.2849 27.3189H30.6353L31.9819 28.2783L31.4769 29.8269L32.7898 28.8675L34.1028 29.8269L33.5978 28.2783L34.9444 27.3189H33.2948Z" fill="#FFCC00"/>
<path d="M36.7499 20.5208H35.1003L34.5953 18.9553L34.0903 20.5208H32.4575L33.7873 21.4802L33.2823 23.0288L34.5953 22.0694L35.9082 23.0288L35.4201 21.4802L36.7499 20.5208Z" fill="#FFCC00"/>
<path d="M31.4769 16.2171L32.7898 15.2576L34.1028 16.2171L33.5978 14.6684L34.9444 13.709H33.2948L32.7898 12.1267L32.2849 13.709H30.6353L31.9819 14.6684L31.4769 16.2171Z" fill="#FFCC00"/>
<path d="M27.8221 7.17432L27.3171 8.75659H25.6675L27.0141 9.71606L26.5091 11.2647L27.8221 10.3052L29.135 11.2647L28.63 9.71606L29.9767 8.75659H28.327L27.8221 7.17432Z" fill="#FFCC00"/>
</g>
</svg>

<svg xmlns="http://www.w3.org/2000/svg" width="42" height="42" fill="none"><mask id="a" width="42" height="42" x="0" y="0" maskUnits="userSpaceOnUse" style="mask-type:alpha"><circle cx="21" cy="21" r="21" fill="#D9D9D9"/></mask><g mask="url(#a)"><path fill="#039" d="M52.496 0h-62.992v42h62.992V0Z"/><path fill="#FC0" d="m19.694 9.433 1.313-.96 1.313.96-.488-1.549 1.33-.96h-1.65l-.505-1.565-.505 1.566h-1.633l1.33.96-.505 1.548ZM12.896 11.265l1.313-.96 1.313.96-.488-1.549 1.33-.96h-1.65l-.505-1.582-.505 1.583h-1.633l1.33.96-.505 1.548ZM9.242 12.158l-.505 1.582h-1.65l1.33.96-.504 1.548 1.33-.96 1.312.96-.505-1.549 1.33-.96H9.73l-.488-1.582ZM7.405 22.07l1.313.959-.505-1.549 1.346-.96H7.91l-.504-1.565-.505 1.583-1.65-.017 1.347.96-.505 1.548 1.313-.96ZM9.73 27.319l-.488-1.566-.505 1.566h-1.65l1.33.96-.504 1.548 1.33-.96 1.312.96-.505-1.549 1.33-.96H9.73ZM14.73 32.302l-.504-1.565-.505 1.565h-1.65l1.33.96-.488 1.548 1.313-.96 1.313.96-.505-1.548 1.33-.96H14.73ZM21.512 34.134l-.505-1.582-.505 1.582h-1.633l1.33.96-.505 1.548 1.313-.96 1.313.96-.488-1.549 1.33-.959h-1.65ZM28.304 32.302l-.505-1.565-.505 1.565h-1.65l1.33.96-.488 1.548 1.313-.96 1.313.96-.505-1.548 1.33-.96h-1.633ZM33.295 27.319l-.505-1.566-.505 1.566h-1.65l1.347.96-.505 1.548 1.313-.96 1.313.96-.505-1.549 1.346-.96h-1.65ZM36.75 20.52H35.1l-.505-1.565-.505 1.566h-1.633l1.33.96-.505 1.548 1.313-.96 1.313.96-.488-1.549 1.33-.96ZM31.477 16.217l1.313-.96 1.313.96-.505-1.549 1.346-.959h-1.65l-.504-1.582-.505 1.582h-1.65l1.347.96-.505 1.548ZM27.822 7.174l-.505 1.583h-1.65l1.347.96-.505 1.548 1.313-.96 1.313.96-.505-1.549 1.347-.96h-1.65l-.505-1.582Z"/></g></svg>
